X:1
T:Title
%%score { ( 1 3 ) | 2 }
L:1/8
Q:1/4=100
M:4/4
K:G
V:1 treble nm="Grand Piano"
V:3 treble 
V:2 bass 
V:1
 [DB]3 [DB] [Ec][DB][CA][B,G] | [DB]4 [B,G]2 z2 | A3 d cF G>A | [DB]6 z2 | B3 d dGAB | %5
w: John~R.~Sweney * * * * *|||||
 [Ec]4 E2 z2 | D3 G BAGF | [B,DG]6 z2 | [DFA]3 [Fd] [Fd][A^c][GB][FA] | [Fd]4 [DF]2 z2 | %10
w: |||||
 [^CE]3 [DF] [EG][GB][FA][EG] | [DF]6 z2 | [FA]3 [FA] [GB][FA][=F^G][^FA] | B4 e4 | %14
w: ||||
 d3 d [E^c][GB] [Gc]>[GA] | d4 z4 | [DB]3 [DB] [Ec][DB][CA][B,G] | [DB]4 [B,G]2 z2 | A3 d cF G>A | %19
w: |||||
 [DB]6 z2 | B3 d dGAB | [Ec]4 E2 z2 | D3 G BAGF |[M:8/4] [B,DG]8 z8 |] %24
w: |||||
V:2
 [G,,G,]3 [G,,G,] [G,,G,][G,,G,][G,,G,][G,,G,] | [G,,G,]4 [G,,G,]2 z2 | %2
 [D,F,D]3 [D,F,D] [D,F,D][D,CD] [D,B,D]>[D,F,D] | [G,,G,]6 z2 | %4
 [G,D]3 [G,B,D] [G,B,=F][G,B,F][G,CF][G,DF] | [C,C]4 [C,G,C]2 z2 | %6
 [D,G,B,]3 [D,G,B,] [D,G,D][D,CD][D,B,D][D,A,D] | G,,6 z2 | D,3 [D,A,] [D,A,][D,D][D,D][D,D] | %9
 [D,A,]4 [D,A,]2 z2 | [A,,A,]3 [A,,A,] [A,,A,][A,,A,][B,,A,][^C,A,] | [D,A,]6 z2 | %12
 [D,D]3 [D,D] [D,D][D,D][D,D][D,A,] | [G,G]4 [G,B,G]4 | %14
 [A,F]3 [A,F][K:bass] [A,,A,][A,,A,] [A,,A,]>[A,,A,] | [D,A,]6 z2 | %16
 [G,,G,]3 [G,,G,] [G,,G,][G,,G,][G,,G,][G,,G,] | [G,,G,]4 [G,,G,]2 z2 | %18
 [D,F,D]3 [D,F,D] [D,F,D][D,CD] [D,B,D]>[D,F,D] | [G,,G,]6 z2 | %20
 [G,D]3 [G,B,D] [G,B,=F][G,B,F][G,CF][G,DF] | [C,C]4 [C,G,C]2 z2 | %22
 [D,G,B,]3 [D,G,B,] [D,G,D][D,CD][D,B,D][D,A,D] |[M:8/4] G,,8 z8 |] %24
V:3
 x8 | x8 | x8 | x8 | x8 | x8 | x8 | x8 | x8 | x8 | x8 | x8 | x8 | x8 | x8 | F4- [Fc]2 z2 | x8 | %17
 x8 | x8 | x8 | x8 | x8 | x8 |[M:8/4] x16 |] %24

